libs/icons/src/svg/conversation.svg

<svg width="16" height="16" viewBox="0 0 16 16" fill="none" xmlns="http://www.w3.org/2000/svg">
<g clip-path="url(#clip0_3_3759)">
<path fill-rule="evenodd" clip-rule="evenodd" d="M7.33333 0C3.42963 0 0 2.55536 0 6C0 7.30041 0.508326 8.48472 1.33333 9.445V12.6667C1.33333 12.8977 1.45296 13.1123 1.64949 13.2338C1.84602 13.3552 2.09143 13.3663 2.29809 13.263L4.99882 11.9129C6.09393 13.202 7.95581 14 9.99997 14C10.3544 14 10.6997 13.9748 11.0344 13.9292L13.7018 15.2629C13.9085 15.3663 14.1539 15.3552 14.3505 15.2338C14.547 15.1123 14.6666 14.8977 14.6666 14.6667V12.2688C15.4764 11.4903 16 10.4762 16 9.33333C16 8.18377 15.4701 7.16536 14.6523 6.38486C14.6618 6.25789 14.6667 6.12957 14.6667 6C14.6667 2.55536 11.237 0 7.33333 0ZM13.3006 6.48085C13.2894 6.52398 13.2827 6.56792 13.2803 6.61196C12.8991 8.80429 10.5022 10.6667 7.33333 10.6667C6.65499 10.6667 6.00412 10.5748 5.39402 10.4119C5.23673 10.3699 5.06952 10.3869 4.92391 10.4597L4.91098 10.4662C4.90493 10.4691 4.8989 10.4721 4.89291 10.4752L2.66667 11.5881V9.19C2.66667 9.02077 2.60231 8.85787 2.48664 8.73434C1.75044 7.94808 1.33333 7.00347 1.33333 6C1.33333 3.55397 3.87304 1.33333 7.33333 1.33333C10.7936 1.33333 13.3333 3.55397 13.3333 6C13.3333 6.16146 13.3223 6.32193 13.3006 6.48085ZM7.21758 11.9992C7.25609 11.9997 7.29467 12 7.33333 12C10.4382 12 13.2432 10.3834 14.2612 7.98862C14.5273 8.41048 14.6666 8.8669 14.6666 9.33333C14.6666 10.1103 14.2807 10.8585 13.5677 11.4658C13.419 11.5925 13.3333 11.778 13.3333 11.9733V13.588L11.4421 12.6424C11.3165 12.5796 11.1743 12.558 11.0357 12.5808C10.7005 12.636 10.3548 12.6667 9.99997 12.6667C8.93736 12.6667 7.98188 12.4116 7.21758 11.9992Z" fill="#202327"/>
</g>
<defs>
<clipPath id="clip0_3_3759">
<rect width="16" height="16" fill="white"/>
</clipPath>
</defs>
</svg>

<svg xmlns="http://www.w3.org/2000/svg" viewBox="0 0 16 16" class="sageicon"><path fill-rule="evenodd" d="M7.333 0C3.43 0 0 2.555 0 6c0 1.3.508 2.485 1.333 3.445v3.222a.667.667 0 0 0 .965.596l2.7-1.35C6.095 13.202 7.957 14 10 14c.354 0 .7-.025 1.034-.07l2.668 1.333a.667.667 0 0 0 .965-.596v-2.398C15.477 11.49 16 10.476 16 9.333c0-1.15-.53-2.168-1.348-2.948.01-.127.015-.255.015-.385 0-3.445-3.43-6-7.334-6Zm5.968 6.48a.666.666 0 0 0-.02.132c-.382 2.192-2.779 4.055-5.948 4.055-.678 0-1.329-.092-1.939-.255a.667.667 0 0 0-.47.048l-.013.006a.66.66 0 0 0-.018.01l-2.226 1.112V9.19a.667.667 0 0 0-.18-.456C1.75 7.948 1.333 7.004 1.333 6c0-2.446 2.54-4.667 6-4.667s6 2.221 6 4.667c0 .161-.01.322-.032.48ZM7.218 12h.115c3.105 0 5.91-1.617 6.928-4.011.266.421.406.878.406 1.344 0 .777-.386 1.525-1.1 2.133a.667.667 0 0 0-.234.507v1.615l-1.89-.946a.667.667 0 0 0-.407-.061c-.335.055-.681.086-1.036.086-1.063 0-2.018-.255-2.782-.668Z"/></svg>
